svg/u1f9fd.svg

<svg viewBox="0 0 128 128" xmlns="http://www.w3.org/2000/svg">
  <defs>
    <radialGradient id="SVGID_1_" cx="42.391333" cy="37.172953" gradientTransform="matrix(0.9796 0.2007 -0.2025 0.9884 0 0)" gradientUnits="userSpaceOnUse" r="16.6595">
      <stop offset="0.3759" stop-color="#80DEEA" stop-opacity="0"/>
      <stop offset="1" stop-color="#80DEEA" stop-opacity="0.8"/>
    </radialGradient>
    <radialGradient id="SVGID_2_" cx="37.636006" cy="11.802605" gradientTransform="matrix(0.9957 0.0926 -0.0926 0.9957 0 0)" gradientUnits="userSpaceOnUse" r="6.9559">
      <stop offset="0.3759" stop-color="#80DEEA" stop-opacity="0"/>
      <stop offset="1" stop-color="#80DEEA" stop-opacity="0.8"/>
    </radialGradient>
    <radialGradient id="SVGID_3_" cx="21.076706" cy="30.095805" gradientTransform="matrix(0.9957 0.0926 -0.0926 0.9957 0 0)" gradientUnits="userSpaceOnUse" r="8.834">
      <stop offset="0.3759" stop-color="#80DEEA" stop-opacity="0"/>
      <stop offset="1" stop-color="#80DEEA" stop-opacity="0.8"/>
    </radialGradient>
    <radialGradient id="SVGID_4_" cx="106.944243" cy="75.894399" gradientTransform="matrix(0.9796 0.2007 -0.2007 0.9796 0 0)" gradientUnits="userSpaceOnUse" r="11.3948">
      <stop offset="0.2003" stop-color="#80DEEA" stop-opacity="0"/>
      <stop offset="1" stop-color="#80DEEA" stop-opacity="0.8"/>
    </radialGradient>
    <radialGradient id="SVGID_5_" cx="125.168943" cy="78.845699" gradientTransform="matrix(0.9796 0.2007 -0.2007 0.9796 0 0)" gradientUnits="userSpaceOnUse" r="6.027">
      <stop offset="0.3119" stop-color="#80DEEA" stop-opacity="0"/>
      <stop offset="1" stop-color="#80DEEA"/>
    </radialGradient>
  </defs>
  <path d="M122.68,46.87 L80.88,32.43 C80.88,32.43 4.03,66.57 4.03,66.57 C3.86,71.02 4.41,81.7 5.15,82.77 C5.93,83.89 9.01,86.4 8.58,87.69 C8.25,88.68 7.18,89.2 6.48,89.98 C4.12,92.61 7.53,97.89 9.26,100.08 C11.17,102.5 13.66,104.44 16.27,106.06 C18.87,107.68 25.53,112.24 28.65,110.91 C29.1,110.72 29.47,110.38 29.87,110.1 C30.68,109.53 31.65,109.14 32.64,109.17 C33.63,109.19 34.63,109.66 35.17,110.49 C36.73,112.9 37.16,113.98 40.15,114.74 C43.27,115.54 46.58,115.95 49.78,116.26 C54.75,116.74 59.87,116.75 64.76,115.6 C71.44,114.03 77.31,109.96 79.33,103.16 C82.66,91.97 98.98,87.35 105.9,86.05 C107.32,85.78 108.73,85.49 110.13,85.15 C111.01,84.93 113.71,84.67 114.23,83.92 C114.42,83.64 114.47,83.29 114.54,82.96 C114.79,81.8 115.43,80.68 116.45,80.08 C117.47,79.48 118.89,79.5 119.76,80.31 C119.85,80.39 119.93,80.48 120.04,80.54 C120.83,80.91 122.35,78.69 122.68,78.16 C123.51,76.84 123.95,75.32 123.98,73.76 C124.14,65.41 122.68,46.87 122.68,46.87 Z" fill="#EEBD1C"/>
  <path d="M102.71,29.18 C86.04,22.38 74.13,21.35 65.66,23.12 C65.28,23.2 65.06,23.59 65.17,23.96 C65.23,24.15 65.27,24.37 65.28,24.62 C65.29,25.83 63.19,27.24 60.36,27.46 C59.29,27.54 58.29,27.43 57.45,27.18 C56.7,26.96 55.88,27.14 55.24,27.6 C51.4,30.38 49.01,33.84 47.58,36.86 C46.39,39.37 44.08,41.06 41.67,42.32 C36.9,44.81 31.59,46.23 26.52,47.98 C12.92,52.67 10.58,55.53 10.1,56.85 C9.9,57.4 9.78,57.98 9.49,58.48 C8.72,59.79 7.04,60.18 5.75,60.98 C5.16,61.35 4.17,63.46 4.03,66.15 C3.55,75.9 13.72,82.02 21.26,85.2 C43.22,94.49 57.28,97.77 69.12,84.58 C74.09,79.05 77.63,73.97 80.84,72.39 C79.6,71.98 77.85,70.86 78.45,69.6 C80.28,65.75 89.25,68.15 89.43,68.19 C89.72,68.26 92.49,65.72 105.5,65.17 C116.49,64.71 139.87,44.34 102.71,29.18 Z" fill="#FFEB3B"/>
  <path d="M28.19,88.01 C28.37,90.42 26.88,92.12 24.86,91.82 C22.84,91.51 21.05,89.31 20.87,86.91 C20.82,86.31 20.88,85.75 21.03,85.26 C21.03,85.26 26.21,82.7 29.75,84.44 C33.29,86.18 28.19,88.01 28.19,88.01 Z" fill="#D19600"/>
  <path d="M28.19,87.98 C26.96,88.38 25.62,88.43 24.39,88.03 C23.7,87.81 23.06,87.46 22.48,87.02 C22.18,86.79 20.95,85.87 20.99,85.46 C21.03,85.03 22.22,84.76 22.6,84.63 C24.83,83.87 27.55,83.36 29.75,84.44 C31.51,85.3 31.06,86.48 29.61,87.34 C29.16,87.61 28.68,87.82 28.19,87.98 Z" fill="#EEBD1C"/>
  <path d="M19.23,99.91 C19.39,102.1 18.04,103.63 16.21,103.36 C14.38,103.08 12.76,101.09 12.6,98.91 C12.44,96.73 13.79,95.19 15.62,95.46 C17.45,95.73 19.07,97.74 19.23,99.91 Z" fill="#D19600"/>
  <path d="M42.84,101.6 C43.03,104.09 41.66,105.89 39.77,105.61 C37.89,105.33 36.22,103.1 36.03,100.62 C35.84,98.14 37.21,96.33 39.1,96.61 C40.98,96.88 42.65,99.11 42.84,101.6 Z" fill="#D19600"/>
  <path d="M53.33,109.71 C53.44,111.22 52.6,112.32 51.46,112.16 C50.32,112 49.29,110.63 49.18,109.11 C49.07,107.6 49.91,106.5 51.05,106.66 C52.19,106.82 53.22,108.18 53.33,109.71 Z" fill="#D19600"/>
  <path d="M69.85,93.43 C69.89,96.05 68.54,98.77 66.84,99.51 C65.14,100.25 63.72,98.73 63.68,96.1 C63.64,93.48 64.99,90.76 66.69,90.02 C68.39,89.29 69.8,90.82 69.85,93.43 Z" fill="#D19600"/>
  <path d="M110.7,79.26 C110.65,81.27 109.53,83.31 108.21,83.82 C106.88,84.33 105.84,83.13 105.89,81.11 C105.94,79.1 107.06,77.06 108.38,76.55 C109.71,76.04 110.75,77.26 110.7,79.26 Z" fill="#D19600"/>
  <path d="M120.22,68.23 C120.17,70.24 119.05,72.28 117.73,72.79 C116.41,73.3 115.36,72.1 115.41,70.08 C115.46,68.07 116.58,66.03 117.9,65.52 C119.23,65.01 120.27,66.23 120.22,68.23 Z" fill="#D19600"/>
  <path d="M100.22,74.1 C100.15,77.05 98.38,80.09 96.28,80.9 C94.18,81.71 92.53,80 92.6,77.05 C92.67,74.1 94.44,71.06 96.54,70.25 C98.64,69.44 100.3,71.16 100.22,74.1 Z" fill="#D19600"/>
  <path d="M30.663,59.08 C30.821,61.173 27.86,63.103 24.049,63.391 C20.238,63.679 17.02,62.215 16.862,60.122 C16.704,58.03 19.665,56.1 23.477,55.812 C27.288,55.524 30.505,56.988 30.663,59.08 Z" fill="#EEBD1C"/>
  <path d="M61.904,61.268 C62.119,64.109 57.592,66.768 51.792,67.206 C45.993,67.644 41.118,65.695 40.903,62.853 C40.689,60.012 45.216,57.353 51.015,56.915 C56.815,56.477 61.69,58.426 61.904,61.268 Z" fill="#EEBD1C"/>
  <path d="M69.953,35.522 C70.122,37.763 66.951,39.83 62.87,40.138 C58.789,40.446 55.344,38.879 55.174,36.637 C55.005,34.396 58.176,32.329 62.257,32.021 C66.338,31.713 69.784,33.28 69.953,35.522 Z" fill="#EEBD1C"/>
  <path d="M46.292,51.068 C46.386,52.324 44.611,53.482 42.325,53.654 C40.039,53.827 38.11,52.949 38.015,51.693 C37.92,50.438 39.696,49.28 41.982,49.107 C44.267,48.935 46.197,49.813 46.292,51.068 Z" fill="#EEBD1C"/>
  <path d="M42.762,72.719 C42.857,73.975 41.081,75.133 38.795,75.305 C36.51,75.478 34.58,74.6 34.485,73.344 C34.39,72.089 36.166,70.931 38.452,70.758 C40.738,70.586 42.667,71.464 42.762,72.719 Z" fill="#EEBD1C"/>
  <path d="M56.778,79.829 C56.912,81.603 54.4,83.238 51.167,83.482 C47.934,83.727 45.205,82.487 45.071,80.713 C44.937,78.94 47.449,77.305 50.682,77.06 C53.915,76.816 56.644,78.056 56.778,79.829 Z" fill="#EEBD1C"/>
  <path d="M66.633,47.823 C66.72,48.974 65.089,50.035 62.991,50.194 C60.893,50.352 59.121,49.548 59.034,48.396 C58.948,47.245 60.578,46.184 62.676,46.025 C64.775,45.867 66.546,46.672 66.633,47.823 Z" fill="#EEBD1C"/>
  <path d="M64.553,71.224 C64.64,72.375 63.01,73.436 60.911,73.595 C58.813,73.753 57.042,72.949 56.955,71.798 C56.868,70.647 58.498,69.585 60.597,69.427 C62.695,69.268 64.467,70.073 64.553,71.224 Z" fill="#EEBD1C"/>
  <path d="M81.793,30.382 C81.88,31.533 80.249,32.594 78.151,32.753 C76.053,32.911 74.281,32.107 74.194,30.956 C74.108,29.805 75.738,28.743 77.836,28.585 C79.935,28.426 81.706,29.231 81.793,30.382 Z" fill="#EEBD1C"/>
  <path d="M114.729,52.557 C114.801,54.621 111.808,56.401 108.044,56.533 C104.28,56.664 101.17,55.097 101.097,53.033 C101.025,50.969 104.019,49.189 107.783,49.057 C111.547,48.926 114.657,50.493 114.729,52.557 Z" fill="#EEBD1C"/>
  <path d="M102.521,45.753 C102.555,46.735 101.138,47.582 99.355,47.644 C97.572,47.707 96.099,46.961 96.065,45.978 C96.031,44.996 97.448,44.149 99.231,44.086 C101.014,44.024 102.487,44.77 102.521,45.753 Z" fill="#EEBD1C"/>
  <path d="M86.495,38.106 C86.569,39.086 85.187,39.99 83.409,40.124 C81.63,40.258 80.128,39.573 80.054,38.592 C79.98,37.612 81.362,36.708 83.14,36.574 C84.919,36.44 86.421,37.125 86.495,38.106 Z" fill="#EEBD1C"/>
  <path d="M88.284,52.821 C88.453,55.063 85.282,57.13 81.201,57.438 C77.12,57.746 73.675,56.179 73.505,53.937 C73.336,51.696 76.507,49.629 80.588,49.321 C84.669,49.012 88.115,50.58 88.284,52.821 Z" fill="#EEBD1C"/>
  <path d="M83.94,69.59 C85.6,69.56 87.22,69.06 88.74,68.4 C88.85,69.35 88.44,70.27 88.04,71.14 C87.65,71.97 87.24,72.83 86.51,73.38 C85.63,74.04 84.42,74.12 83.35,73.85 C82.28,73.58 81.33,72.99 80.4,72.39 C79.51,71.82 77.24,69.7 79.07,68.69 C79.65,68.37 80.29,68.79 80.83,68.99 C81.85,69.37 82.84,69.61 83.94,69.59 Z" fill="#D19600"/>
  <path d="M50.23,43.62 A16.49 16.49 0 1 1 17.25,43.62 A16.49 16.49 0 1 1 50.23,43.62 Z" fill="url(#SVGID_1_)"/>
  <path d="M42.19,14.24 A6.72 6.72 0 1 1 28.75,14.24 A6.72 6.72 0 1 1 42.19,14.24 Z" fill="url(#SVGID_2_)"/>
  <path d="M25.94,31.79 A7.96 7.96 0 1 1 10.02,31.79 A7.96 7.96 0 1 1 25.94,31.79 Z" fill="url(#SVGID_3_)"/>
  <path d="M27.61,32.31 C27.63,32.81 28.16,33.15 28.65,33.25 C30.21,33.56 32.35,33.03 33.95,33.14 C35.64,33.26 36.67,33.38 38.51,33.97 C39.58,34.31 41.73,34.37 41.31,32.67 C40.95,31.2 38.4,30.11 37.14,29.8 C34.21,29.06 31.23,29.2 29.11,30.25 C27.71,30.94 27.6,32.04 27.61,32.31 Z" fill="#FFFFFF" opacity="0.8"/>
  <path d="M98.74,92.88 A10.93 10.93 0 1 1 76.88,92.88 A10.93 10.93 0 1 1 98.74,92.88 Z" fill="url(#SVGID_4_)"/>
  <path d="M111.7,102.66 A5.32 5.32 0 1 1 101.06,102.66 A5.32 5.32 0 1 1 111.7,102.66 Z" fill="url(#SVGID_5_)" opacity="0.7"/>
  <path d="M96.07,91.48 C96.21,92.2 96.24,92.99 95.9,93.65 C95.56,94.31 94.78,94.78 94.08,94.55 C93.49,94.36 93.13,93.78 92.78,93.26 C91.62,91.59 89.94,90.36 88.03,89.69 C86.85,89.27 84.15,88.72 84.58,86.85 C85.22,84.11 90.35,85 92.46,86.38 C94.26,87.56 95.66,89.37 96.07,91.48 Z" fill="#FFFFFF" opacity="0.8"/>
  <path d="M30.66,13.41 C31.22,13.39 31.68,12.54 32.69,11.77 C33.6,11.07 34.94,10.74 35.75,10.69 C36.19,10.66 36.84,10.52 37.1,10.05 C37.24,9.79 37.01,8.46 35.14,8.71 C32.92,9.01 30.98,10.47 30.49,11.79 C30.16,12.69 30.13,13.43 30.66,13.41 Z" fill="#FFFFFF" opacity="0.8"/>
</svg>

<svg viewBox="0 0 128 128" xmlns="http://www.w3.org/2000/svg">
  <g>
    <path d="M122.68,46.87l-41.8-14.44c0,0-76.85,34.14-76.85,34.14C3.86,71.02,4.41,81.7,5.15,82.77 c0.78,1.12,3.86,3.63,3.43,4.92c-0.33,0.99-1.4,1.51-2.1,2.29c-2.36,2.63,1.05,7.91,2.78,10.1c1.91,2.42,4.4,4.36,7.01,5.98 c2.6,1.62,9.26,6.18,12.38,4.85c0.45-0.19,0.82-0.53,1.22-0.81c0.81-0.57,1.78-0.96,2.77-0.93c0.99,0.02,1.99,0.49,2.53,1.32 c1.56,2.41,1.99,3.49,4.98,4.25c3.12,0.8,6.43,1.21,9.63,1.52c4.97,0.48,10.09,0.49,14.98-0.66c6.68-1.57,12.55-5.64,14.57-12.44 c3.33-11.19,19.65-15.81,26.57-17.11c1.42-0.27,2.83-0.56,4.23-0.9c0.88-0.22,3.58-0.48,4.1-1.23c0.19-0.28,0.24-0.63,0.31-0.96 c0.25-1.16,0.89-2.28,1.91-2.88c1.02-0.6,2.44-0.58,3.31,0.23c0.09,0.08,0.17,0.17,0.28,0.23c0.79,0.37,2.31-1.85,2.64-2.38 c0.83-1.32,1.27-2.84,1.3-4.4C124.14,65.41,122.68,46.87,122.68,46.87z" fill="#EEBD1C"/>
    <path d="M102.71,29.18c-16.67-6.8-28.58-7.83-37.05-6.06c-0.38,0.08-0.6,0.47-0.49,0.84 c0.06,0.19,0.1,0.41,0.11,0.66c0.01,1.21-2.09,2.62-4.92,2.84c-1.07,0.08-2.07-0.03-2.91-0.28c-0.75-0.22-1.57-0.04-2.21,0.42 c-3.84,2.78-6.23,6.24-7.66,9.26c-1.19,2.51-3.5,4.2-5.91,5.46c-4.77,2.49-10.08,3.91-15.15,5.66c-13.6,4.69-15.94,7.55-16.42,8.87 c-0.2,0.55-0.32,1.13-0.61,1.63c-0.77,1.31-2.45,1.7-3.74,2.5c-0.59,0.37-1.58,2.48-1.72,5.17C3.55,75.9,13.72,82.02,21.26,85.2 c21.96,9.29,36.02,12.57,47.86-0.62c4.97-5.53,8.51-10.61,11.72-12.19c-1.24-0.41-2.99-1.53-2.39-2.79 c1.83-3.85,10.8-1.45,10.98-1.41c0.29,0.07,3.06-2.47,16.07-3.02C116.49,64.71,139.87,44.34,102.71,29.18z" fill="#FFEB3B"/>
    <path d="M28.19,88.01c0.18,2.41-1.31,4.11-3.33,3.81c-2.02-0.31-3.81-2.51-3.99-4.91 c-0.05-0.6,0.01-1.16,0.16-1.65c0,0,5.18-2.56,8.72-0.82C33.29,86.18,28.19,88.01,28.19,88.01z" fill="#D19600"/>
    <path d="M28.19,87.98c-1.23,0.4-2.57,0.45-3.8,0.05c-0.69-0.22-1.33-0.57-1.91-1.01 c-0.3-0.23-1.53-1.15-1.49-1.56c0.04-0.43,1.23-0.7,1.61-0.83c2.23-0.76,4.95-1.27,7.15-0.19c1.76,0.86,1.31,2.04-0.14,2.9 C29.16,87.61,28.68,87.82,28.19,87.98z" fill="#EEBD1C"/>
    <path d="M19.23,99.91c0.16,2.19-1.19,3.72-3.02,3.45c-1.83-0.28-3.45-2.27-3.61-4.45 c-0.16-2.18,1.19-3.72,3.02-3.45S19.07,97.74,19.23,99.91z" fill="#D19600"/>
    <path d="M42.84,101.6c0.19,2.49-1.18,4.29-3.07,4.01c-1.88-0.28-3.55-2.51-3.74-4.99 c-0.19-2.48,1.18-4.29,3.07-4.01C40.98,96.88,42.65,99.11,42.84,101.6z" fill="#D19600"/>
    <path d="M53.33,109.71c0.11,1.51-0.73,2.61-1.87,2.45s-2.17-1.53-2.28-3.05c-0.11-1.51,0.73-2.61,1.87-2.45 S53.22,108.18,53.33,109.71z" fill="#D19600"/>
    <path d="M69.85,93.43c0.04,2.62-1.31,5.34-3.01,6.08c-1.7,0.74-3.12-0.78-3.16-3.41 c-0.04-2.62,1.31-5.34,3.01-6.08C68.39,89.29,69.8,90.82,69.85,93.43z" fill="#D19600"/>
    <path d="M110.7,79.26c-0.05,2.01-1.17,4.05-2.49,4.56c-1.33,0.51-2.37-0.69-2.32-2.71 c0.05-2.01,1.17-4.05,2.49-4.56C109.71,76.04,110.75,77.26,110.7,79.26z" fill="#D19600"/>
    <path d="M120.22,68.23c-0.05,2.01-1.17,4.05-2.49,4.56s-2.37-0.69-2.32-2.71c0.05-2.01,1.17-4.05,2.49-4.56 C119.23,65.01,120.27,66.23,120.22,68.23z" fill="#D19600"/>
    <path d="M100.22,74.1c-0.07,2.95-1.84,5.99-3.94,6.8S92.53,80,92.6,77.05s1.84-5.99,3.94-6.8 S100.3,71.16,100.22,74.1z" fill="#D19600"/>
    <ellipse cx="23.76" cy="59.6" rx="6.92" ry="3.8" fill="#EEBD1C" transform="matrix(0.9972 -0.0753 0.0753 0.9972 -4.4187 1.9574)"/>
    <ellipse cx="51.4" cy="62.06" rx="10.53" ry="5.16" fill="#EEBD1C" transform="matrix(0.9972 -0.0753 0.0753 0.9972 -4.5253 4.0447)"/>
    <ellipse cx="62.56" cy="36.08" rx="7.41" ry="4.07" fill="#EEBD1C" transform="matrix(0.9972 -0.0753 0.0753 0.9972 -2.538 4.8113)"/>
    <ellipse cx="42.15" cy="51.38" rx="4.15" ry="2.28" fill="#EEBD1C" transform="matrix(0.9972 -0.0753 0.0753 0.9972 -3.7476 3.3186)"/>
    <ellipse cx="38.62" cy="73.03" rx="4.15" ry="2.28" fill="#EEBD1C" transform="matrix(0.9972 -0.0753 0.0753 0.9972 -5.3874 3.1143)"/>
    <ellipse cx="50.92" cy="80.27" rx="5.87" ry="3.22" fill="#EEBD1C" transform="matrix(0.9972 -0.0753 0.0753 0.9972 -5.8973 4.0605)"/>
    <ellipse cx="62.83" cy="48.11" rx="3.81" ry="2.09" fill="#EEBD1C" transform="matrix(0.9972 -0.0753 0.0753 0.9972 -3.443 4.8654)"/>
    <ellipse cx="60.75" cy="71.51" rx="3.81" ry="2.09" fill="#EEBD1C" transform="matrix(0.9972 -0.0753 0.0753 0.9972 -5.2105 4.7754)"/>
    <ellipse cx="77.99" cy="30.67" rx="3.81" ry="2.09" fill="#EEBD1C" transform="matrix(0.9972 -0.0753 0.0753 0.9972 -2.0873 5.9573)"/>
    <ellipse cx="107.91" cy="52.8" rx="6.82" ry="3.74" fill="#EEBD1C" transform="matrix(0.9994 -0.0349 0.0349 0.9994 -1.7746 3.7929)"/>
    <ellipse cx="99.29" cy="45.87" rx="3.23" ry="1.78" fill="#EEBD1C" transform="matrix(0.9994 -0.0349 0.0349 0.9994 -1.5382 3.4881)"/>
    <ellipse cx="83.27" cy="38.35" rx="3.23" ry="1.78" fill="#EEBD1C" transform="matrix(0.9972 -0.0753 0.0753 0.9972 -2.6501 6.3766)"/>
    <ellipse cx="80.89" cy="53.38" rx="7.41" ry="4.07" fill="#EEBD1C" transform="matrix(0.9972 -0.0753 0.0753 0.9972 -3.7884 6.2397)"/>
    <path d="M83.94,69.59c1.66-0.03,3.28-0.53,4.8-1.19c0.11,0.95-0.3,1.87-0.7,2.74 c-0.39,0.83-0.8,1.69-1.53,2.24c-0.88,0.66-2.09,0.74-3.16,0.47c-1.07-0.27-2.02-0.86-2.95-1.46c-0.89-0.57-3.16-2.69-1.33-3.7 c0.58-0.32,1.22,0.1,1.76,0.3C81.85,69.37,82.84,69.61,83.94,69.59z" fill="#D19600"/>
    <radialGradient id="SVGID_1_" cx="31.8419" cy="51.5674" gradientTransform="matrix(0.9796 0.2007 -0.2025 0.9884 13.2491 -12.1102)" gradientUnits="userSpaceOnUse" r="16.6595">
      <stop offset="0.3759" stop-color="#80DEEA" stop-opacity="0"/>
      <stop offset="1" stop-color="#80DEEA" stop-opacity="0.8"/>
    </radialGradient>
    <circle cx="33.74" cy="43.62" r="16.49" fill="url(#SVGID_1_)"/>
    <radialGradient id="SVGID_2_" cx="27.8284" cy="22.0841" gradientTransform="matrix(0.9957 0.0926 -0.0926 0.9957 10.7175 -9.3291)" gradientUnits="userSpaceOnUse" r="6.9559">
      <stop offset="0.3759" stop-color="#80DEEA" stop-opacity="0"/>
      <stop offset="1" stop-color="#80DEEA" stop-opacity="0.8"/>
    </radialGradient>
    <circle cx="35.47" cy="14.24" r="6.72" fill="url(#SVGID_2_)"/>
    <radialGradient id="SVGID_3_" cx="11.2691" cy="40.3773" gradientTransform="matrix(0.9957 0.0926 -0.0926 0.9957 10.7175 -9.3291)" gradientUnits="userSpaceOnUse" r="8.834">
      <stop offset="0.3759" stop-color="#80DEEA" stop-opacity="0"/>
      <stop offset="1" stop-color="#80DEEA" stop-opacity="0.8"/>
    </radialGradient>
    <circle cx="17.98" cy="31.79" r="7.96" fill="url(#SVGID_3_)"/>
    <path d="M27.61,32.31c0.02,0.5,0.55,0.84,1.04,0.94c1.56,0.31,3.7-0.22,5.3-0.11 c1.69,0.12,2.72,0.24,4.56,0.83c1.07,0.34,3.22,0.4,2.8-1.3c-0.36-1.47-2.91-2.56-4.17-2.87c-2.93-0.74-5.91-0.6-8.03,0.45 C27.71,30.94,27.6,32.04,27.61,32.31z" opacity="0.8" fill="#FFFFFF"/>
    <radialGradient id="SVGID_4_" cx="96.3948" cy="89.9595" gradientTransform="matrix(0.9796 0.2007 -0.2007 0.9796 13.1571 -11.6609)" gradientUnits="userSpaceOnUse" r="11.3948">
      <stop offset="0.2003" stop-color="#80DEEA" stop-opacity="0"/>
      <stop offset="1" stop-color="#80DEEA" stop-opacity="0.8"/>
    </radialGradient>
    <circle cx="87.81" cy="92.88" r="10.93" fill="url(#SVGID_4_)"/>
    <radialGradient id="SVGID_5_" cx="114.6195" cy="92.9108" gradientTransform="matrix(0.9796 0.2007 -0.2007 0.9796 13.1571 -11.6609)" gradientUnits="userSpaceOnUse" r="6.027">
      <stop offset="0.3119" stop-color="#80DEEA" stop-opacity="0"/>
      <stop offset="1" stop-color="#80DEEA"/>
    </radialGradient>
    <circle cx="106.38" cy="102.66" r="5.32" opacity="0.7" fill="url(#SVGID_5_)"/>
    <path d="M96.07,91.48c0.14,0.72,0.17,1.51-0.17,2.17c-0.34,0.66-1.12,1.13-1.82,0.9 c-0.59-0.19-0.95-0.77-1.3-1.29c-1.16-1.67-2.84-2.9-4.75-3.57c-1.18-0.42-3.88-0.97-3.45-2.84c0.64-2.74,5.77-1.85,7.88-0.47 C94.26,87.56,95.66,89.37,96.07,91.48z" opacity="0.8" fill="#FFFFFF"/>
    <path d="M30.66,13.41c0.56-0.02,1.02-0.87,2.03-1.64c0.91-0.7,2.25-1.03,3.06-1.08 c0.44-0.03,1.09-0.17,1.35-0.64c0.14-0.26-0.09-1.59-1.96-1.34c-2.22,0.3-4.16,1.76-4.65,3.08C30.16,12.69,30.13,13.43,30.66,13.41 z" opacity="0.8" fill="#FFFFFF"/>
  </g>
</svg>
